img/contact/call.svg

<svg width="16" height="16" viewBox="0 0 16 16" fill="none" xmlns="http://www.w3.org/2000/svg">
<path d="M11.6333 15.1668C10.88 15.1668 10.0867 14.9868 9.26666 14.6402C8.46666 14.3002 7.66 13.8335 6.87333 13.2668C6.09333 12.6935 5.33999 12.0535 4.62666 11.3535C3.92 10.6402 3.28 9.88683 2.71333 9.1135C2.14 8.3135 1.67999 7.5135 1.35333 6.74016C1.00666 5.9135 0.833328 5.1135 0.833328 4.36016C0.833328 3.84016 0.926662 3.34683 1.10666 2.88683C1.29333 2.4135 1.59333 1.9735 1.99999 1.5935C2.51333 1.08683 3.1 0.833496 3.72666 0.833496C3.98666 0.833496 4.25333 0.893496 4.47999 1.00016C4.73999 1.12016 4.95999 1.30016 5.12 1.54016L6.66666 3.72016C6.80666 3.9135 6.91333 4.10016 6.98666 4.28683C7.07333 4.48683 7.12 4.68683 7.12 4.88016C7.12 5.1335 7.04666 5.38016 6.90666 5.6135C6.80666 5.7935 6.65333 5.98683 6.45999 6.18016L6.00666 6.6535C6.01333 6.6735 6.02 6.68683 6.02666 6.70016C6.10666 6.84016 6.26666 7.08016 6.57333 7.44016C6.89999 7.8135 7.20666 8.1535 7.51333 8.46683C7.90666 8.8535 8.23333 9.16016 8.54 9.4135C8.92 9.7335 9.16666 9.8935 9.31333 9.96683L9.3 10.0002L9.78666 9.52016C9.99333 9.3135 10.1933 9.16016 10.3867 9.06016C10.7533 8.8335 11.22 8.7935 11.6867 8.98683C11.86 9.06016 12.0467 9.16016 12.2467 9.30016L14.46 10.8735C14.7067 11.0402 14.8867 11.2535 14.9933 11.5068C15.0933 11.7602 15.14 11.9935 15.14 12.2268C15.14 12.5468 15.0667 12.8668 14.9267 13.1668C14.7867 13.4668 14.6133 13.7268 14.3933 13.9668C14.0133 14.3868 13.6 14.6868 13.12 14.8802C12.66 15.0668 12.16 15.1668 11.6333 15.1668ZM3.72666 1.8335C3.36 1.8335 3.01999 1.9935 2.69333 2.3135C2.38666 2.60016 2.17333 2.9135 2.03999 3.2535C1.89999 3.60016 1.83333 3.96683 1.83333 4.36016C1.83333 4.98016 1.98 5.6535 2.27333 6.34683C2.57333 7.0535 2.99333 7.78683 3.52666 8.52016C4.05999 9.2535 4.66666 9.96683 5.33333 10.6402C6 11.3002 6.72 11.9135 7.45999 12.4535C8.18 12.9802 8.92 13.4068 9.65333 13.7135C10.7933 14.2002 11.86 14.3135 12.74 13.9468C13.08 13.8068 13.38 13.5935 13.6533 13.2868C13.8067 13.1202 13.9267 12.9402 14.0267 12.7268C14.1067 12.5602 14.1467 12.3868 14.1467 12.2135C14.1467 12.1068 14.1267 12.0002 14.0733 11.8802C14.0533 11.8402 14.0133 11.7668 13.8867 11.6802L11.6733 10.1068C11.54 10.0135 11.42 9.94683 11.3067 9.90016C11.16 9.84016 11.1 9.78016 10.8733 9.92016C10.74 9.98683 10.62 10.0868 10.4867 10.2202L9.98 10.7202C9.72 10.9735 9.32 11.0335 9.01333 10.9202L8.83333 10.8402C8.56 10.6935 8.24 10.4668 7.88666 10.1668C7.56666 9.8935 7.22 9.5735 6.79999 9.16016C6.47333 8.82683 6.14666 8.4735 5.80666 8.08016C5.49333 7.7135 5.26666 7.40016 5.12666 7.14016L5.04666 6.94016C5.00666 6.78683 4.99333 6.70016 4.99333 6.60683C4.99333 6.36683 5.08 6.1535 5.24666 5.98683L5.74666 5.46683C5.87999 5.3335 5.97999 5.20683 6.04666 5.0935C6.09999 5.00683 6.12 4.9335 6.12 4.86683C6.12 4.8135 6.1 4.7335 6.06666 4.6535C6.02 4.54683 5.94666 4.42683 5.85333 4.30016L4.30666 2.1135C4.24 2.02016 4.16 1.9535 4.06 1.90683C3.95333 1.86016 3.84 1.8335 3.72666 1.8335ZM9.3 10.0068L9.19333 10.4602L9.37333 9.9935C9.34 9.98683 9.31333 9.9935 9.3 10.0068Z" fill="#0F172A"/>
</svg>

<svg xmlns="http://www.w3.org/2000/svg" width="16" height="16" fill="none"><path fill="#0F172A" d="M11.633 15.167c-.753 0-1.546-.18-2.366-.527-.8-.34-1.607-.806-2.394-1.373a20.805 20.805 0 0 1-2.246-1.913 19.916 19.916 0 0 1-1.914-2.24 12.44 12.44 0 0 1-1.36-2.374c-.346-.827-.52-1.627-.52-2.38 0-.52.094-1.013.274-1.473A3.56 3.56 0 0 1 2 1.593c.513-.506 1.1-.76 1.727-.76.26 0 .526.06.753.167.26.12.48.3.64.54l1.547 2.18c.14.193.246.38.32.567.086.2.133.4.133.593 0 .253-.073.5-.213.734-.1.18-.254.373-.447.566l-.453.474c.006.02.013.033.02.046.08.14.24.38.546.74.327.373.634.713.94 1.027.394.386.72.693 1.027.947.38.32.627.48.773.553L9.3 10l.487-.48c.206-.207.406-.36.6-.46.366-.226.833-.267 1.3-.073.173.073.36.173.56.313l2.213 1.573c.247.167.427.38.533.634.1.253.147.486.147.72 0 .32-.073.64-.213.94-.14.3-.314.56-.534.8-.38.42-.793.72-1.273.913-.46.187-.96.287-1.487.287ZM3.727 1.833c-.367 0-.707.16-1.034.48-.306.287-.52.6-.653.94-.14.347-.207.714-.207 1.107 0 .62.147 1.293.44 1.987.3.706.72 1.44 1.254 2.173.533.734 1.14 1.447 1.806 2.12.667.66 1.387 1.274 2.127 1.813.72.527 1.46.954 2.193 1.26 1.14.487 2.207.6 3.087.234.34-.14.64-.353.913-.66.154-.167.274-.347.374-.56.08-.167.12-.34.12-.514a.795.795 0 0 0-.074-.333.504.504 0 0 0-.186-.2l-2.214-1.573a1.913 1.913 0 0 0-.366-.207c-.147-.06-.207-.12-.434.02a1.518 1.518 0 0 0-.386.3l-.507.5a.95.95 0 0 1-.967.2l-.18-.08a5.686 5.686 0 0 1-.946-.673c-.32-.274-.667-.594-1.087-1.007a23.286 23.286 0 0 1-.993-1.08c-.314-.367-.54-.68-.68-.94l-.08-.2a1.244 1.244 0 0 1-.054-.333c0-.24.087-.454.254-.62l.5-.52a1.93 1.93 0 0 0 .3-.373.428.428 0 0 0 .073-.227.62.62 0 0 0-.053-.213 1.912 1.912 0 0 0-.214-.354L4.307 2.114a.614.614 0 0 0-.247-.207.835.835 0 0 0-.333-.074ZM9.3 10.007l-.107.453.18-.467c-.033-.006-.06 0-.073.014Z"/></svg>
